X: 1
T:Molly Darling
M:C
L:1/8
Q:80
C:
S:March
K:HP
e2|
{gAGAG}A3B{g}ce{g}fa|
{ef}e4{gcd}c4|
{g}A3B{g}ca{ef}ec|  !
{g}B4{GdGe}B3e|
{gAGAG}A3B{g}ce{g}fa|
{ef}e4{gcd}c4|  !
{g}f3gac{g}B3/2{d}c/2|
{g}A4{GAG}A4|]
{ag}a4{GdG}ag{a}fe|  !
{gef}e4{gcd}c4|
{ag}a4{GdG}ae{Gdc}dc|
{g}B4{GdGe}B3e|  !
{gAGAG}A3B{g}ce{g}fa|
{ef}e4{gcd}c4|
{g}f3gac{g}B3/2{d}c/2|  !
{g}A4{GAG}A4|]
